X:1
T:It Pays to Serve Jesus
T:Frank Claude Huston, 1909
T:It Pays to Serve Jesus
T:Public Domain
T:Public Domain
C:Frank Claude Huston, 1909
Z:Public Domain
%%score ( 1 2 ) ( 3 4 )
L:1/8
M:3/4
K:Eb
V:1 treble 
V:2 treble 
V:3 bass 
V:4 bass 
V:1
 B,2 | G3 ^F G2 | G2 B2 A2 | G3 E C2 | B,4 E2 | E3 D C2 | D4 A2 | A3 G ^F2 | G4 B,2 | G3 ^F G2 | %10
w: 1.~The|ser- vice of|Je- sus true|plea- sure af-|fords, In|Him there is|joy with-|out an al-|loy; ’Tis|Heav- en to|
w: 2.~It|pays to serve|Je- sus what-|e’er may be-|tide, It|pays to be|true what-|e’er you may|do; ’Tis|rich- es of|
w: 3.~Though|some- times the|sha- dows may|hang o’er the|way, And|sor- rows may|come to|becko- n us|home, Our|pre- cious Re-|
 G2 B2 A2 | G3 E C2 | B,4 E2 | E3 D C2 | D2 G2 F2 | E6- | E4 ||"^Refrain" [EG]2 | %18
w: trust Him and|rest on His|words; It|pays to serve|Je- sus each|day.|||
w: mer- cy in|Him to a-|bide; It|pays to serve|Je- sus each|day.||It|
w: deem- er each|toil will re-|pay; It|pays to serve|Je- sus each|day.|||
 [DB]3 [DF] [EG]2 | [FA]2 [Ac]3 [Gd] | [Ge]4 [EG][Ec] | [EB]4 [EB]2 | [DB]4 [DF][DB] | %23
w: |||||
w: pays to serve|Je- sus, it|pays ev- ery|day, It|pays ev- ery|
w: |||||
 [Ec]2 [EF]2 [Ec]2 | D2 D2 E2 | [DB]4 [DB][DB] | [EB]2 [EA]2 [EG]2 | [EG]2 [DF]2 [_DE]2 | %28
w: |||||
w: step of the|way, * *|Though the path-|way to glo-|ry may some-|
w: |||||
 [CE]2 [CA]2 [Ec]2 | [Ae]4 [^Fd][Fc] | [GB] [Ge]3 [EG]2 | [DF]3 E [DF]2 | E6- | E4 |] %34
w: ||||||
w: times be drear,|You’ll be hap-|py each step|of the way.|||
w: ||||||
V:2
 x2 | x6 | x6 | x6 | x6 | x6 | x6 | x6 | x6 | x6 | x6 | x6 | x6 | x6 | x6 | x6 | x4 || x2 | x6 | %19
 x6 | x6 | x6 | x6 | x6 | B6- | x6 | x6 | x6 | x6 | x6 | x6 | x6 | x6 | x4 |] %34
V:3
 G,2 | B,3 =A, B,2 | E2 D2 C2 | B,3 G, A,2 | G,4 G,2 | A,3 A, A,2 | A,4 C2 | C3 B, =A,2 | B,4 G,2 | %9
 B,3 =A, B,2 | E2 D2 C2 | B,3 G, A,2 | G,4 G,2 | A,3 A, A,2 | [B,,A,]2 [B,,E,B,]2 [B,,D,A,]2 | %15
 [E,,B,,G,]6- | [E,,B,,G,]4 || [E,B,]2 | [B,,B,]3 [B,,B,] [B,,B,]2 | [B,,D]2 [B,,D]3 [B,,B,] | %20
 [E,B,]4 [E,B,][E,A,] | [E,G,]4 [E,G,]2 | [F,B,]4 [F,B,][F,B,] | [F,=A,]2 [F,A,]2 [F,A,]2 | %24
 B,2 F,2 G,2 | [B,,A,]4 [B,,A,][B,,A,] | [E,G,]2 [E,C]2 [E,B,]2 | [B,,B,]2 [B,,A,]2 [G,,B,]2 | %28
 [A,,A,]2 [A,,A,]2 [A,,A,]2 | [A,,A,C]4 [=A,,=A,C][A,,A,C] | [B,,B,E] [B,,B,]3 [B,,B,]2 | %31
 [B,,A,]3 [B,,G,] [B,,A,]2 | [E,G,]6- | [E,G,]4 |] %34
V:4
 x2 | E,6- | E,6 | E,,6- | E,,6 | F,,6 | B,,6 | E,6 | E,,6 | E,6- | E,6 | E,,6- | E,,6 | F,,6 | %14
 x6 | x6 | x4 || x2 | x6 | x6 | x6 | x6 | x6 | x6 | B,,6- | x6 | x6 | x6 | x6 | x6 | x6 | x6 | x6 | %33
 x4 |] %34

